frontend/public/svg/food/spoon.svg

<svg width="60" height="158" viewBox="0 0 60 158" fill="none" xmlns="http://www.w3.org/2000/svg">
<g clip-path="url(#clip0)">
<path d="M16.7847 106.886C16.7847 102.62 16.845 98.3539 16.7722 94.0909C16.6337 86.0121 16.5064 77.9299 16.154 69.8589C16.0923 68.4445 15.1695 66.91 14.269 65.7194C11.7598 62.4153 8.88721 59.3812 6.45156 56.0292C0.0752373 47.2612 -0.958531 37.7213 2.87054 27.6334C6.4233 18.2733 11.7651 10.2188 20.4741 4.90573C31.8143 -2.01207 43.9309 0.245763 51.9126 11.3379C59.408 21.7553 60.7831 33.3711 57.1594 45.6453C56.0847 49.6629 54.3368 53.4692 51.9901 56.9027C48.7845 61.3658 45.3894 65.6865 42.1819 70.1458C41.5754 71.0371 41.2428 72.0865 41.225 73.1649C41.1698 85.0637 41.544 96.9749 41.1147 108.857C40.7025 120.286 39.5513 131.691 38.5615 143.092C38.3035 145.546 37.7099 147.953 36.7973 150.246C34.7042 155.732 27.4451 158.384 22.1537 155.831C21.0819 155.321 20.1372 154.579 19.388 153.659C18.6387 152.739 18.1036 151.663 17.8218 150.51C17.0404 147.934 16.5818 145.271 16.4566 142.582C16.3135 130.684 16.3912 118.783 16.3912 106.883L16.7847 106.886ZM27.7377 149.17C29.7251 147.136 30.0876 146.538 30.3527 143.959C30.7669 139.943 31.2302 135.919 31.3411 131.889C31.6831 119.439 31.9625 106.986 32.0727 94.5327C32.1259 88.4753 31.6501 82.4153 31.593 76.3554C31.5313 69.8163 32.8514 63.6834 37.3966 58.5896C38.9619 56.8352 40.2343 54.8241 41.7281 53.0035C45.149 48.839 47.1436 44.0622 48.4136 38.8502C49.4253 34.9847 49.6186 30.9505 48.9809 27.006C48.343 23.0615 46.8885 19.2938 44.7101 15.9441C40.5096 9.2422 33.5836 7.16412 26.6179 10.3985C23.5388 11.801 20.8255 13.8962 18.6896 16.5203C14.6578 21.5155 11.9164 27.4257 10.7072 33.7301C10.1211 36.3656 10.0704 39.092 10.5584 41.7473C11.0466 44.4027 12.0635 46.9328 13.5485 49.1875C14.8722 51.2712 16.3061 53.2826 17.8442 55.2133C21.2703 59.4572 24.5729 63.7109 23.9192 69.6528C23.9246 69.7651 23.9468 69.8754 23.9849 69.981C25.7274 78.9072 26.6245 87.9778 26.6641 97.0727C26.8951 110.992 27.0579 124.913 27.2903 138.832C27.3428 142.069 27.5664 145.305 27.7377 149.17Z" fill="black"/>
</g>
<defs>
<clipPath id="clip0">
<rect width="59.0704" height="156.208" fill="white" transform="translate(0.591309 0.837891)"/>
</clipPath>
</defs>
</svg>

<svg xmlns="http://www.w3.org/2000/svg" width="60" height="158" fill="none" viewBox="0 0 60 158"><g clip-path="url(#a)"><path fill="#000" d="M16.785 106.886c0-4.266.06-8.532-.013-12.795-.138-8.079-.266-16.161-.618-24.232-.062-1.414-.985-2.949-1.885-4.14-2.51-3.304-5.382-6.338-7.817-9.69C.075 47.261-.958 37.721 2.87 27.633c3.552-9.36 8.894-17.414 17.603-22.727 11.34-6.918 23.457-4.66 31.439 6.432 7.495 10.417 8.87 22.033 5.246 34.307a36.8 36.8 0 0 1-5.169 11.258c-3.206 4.463-6.6 8.783-9.808 13.243a5.53 5.53 0 0 0-.957 3.019c-.055 11.899.319 23.81-.11 35.692-.413 11.429-1.564 22.834-2.553 34.235a27 27 0 0 1-1.765 7.154c-2.093 5.486-9.352 8.138-14.643 5.585a8 8 0 0 1-4.332-5.321 32.5 32.5 0 0 1-1.365-7.928c-.143-11.898-.066-23.799-.066-35.699zm10.953 42.284c1.987-2.034 2.35-2.632 2.615-5.211.414-4.016.877-8.04.988-12.07.342-12.45.621-24.903.732-37.356.053-6.058-.423-12.118-.48-18.178-.062-6.539 1.258-12.672 5.804-17.765 1.565-1.755 2.837-3.766 4.331-5.587 3.421-4.164 5.416-8.94 6.686-14.153a28.7 28.7 0 0 0-3.704-22.906c-4.2-6.702-11.126-8.78-18.092-5.546a21.96 21.96 0 0 0-7.928 6.122 39.14 39.14 0 0 0-7.983 17.21 20.15 20.15 0 0 0 2.842 15.458 69 69 0 0 0 4.295 6.025c3.426 4.244 6.729 8.498 6.075 14.44q.009.168.066.328a144.7 144.7 0 0 1 2.68 27.092c.23 13.919.393 27.84.625 41.759.053 3.237.276 6.473.448 10.338"/></g><defs><clipPath id="a"><path fill="#fff" d="M.591.838h59.07v156.208H.591z"/></clipPath></defs></svg>
